svg/design/clockwise_line.svg

<?xml version="1.0" encoding="UTF-8"?>
<svg width="24px" height="24px" viewBox="0 0 24 24" version="1.1" xmlns="http://www.w3.org/2000/svg" xmlns:xlink="http://www.w3.org/1999/xlink">
    <title>clockwise_line</title>
    <g id="页面-1" stroke="none" stroke-width="1" fill="none" fill-rule="evenodd">
        <g id="Design" transform="translate(-288.000000, -96.000000)" fill-rule="nonzero">
            <g id="clockwise_line" transform="translate(288.000000, 96.000000)">
                 <path d="M24,0 L24,24 L0,24 L0,0 L24,0 Z M12.5934901,23.257841 L12.5819402,23.2595131 L12.5108777,23.2950439 L12.4918791,23.2987469 L12.4918791,23.2987469 L12.4767152,23.2950439 L12.4056548,23.2595131 C12.3958229,23.2563662 12.3870493,23.2590235 12.3821421,23.2649074 L12.3780323,23.275831 L12.360941,23.7031097 L12.3658947,23.7234994 L12.3769048,23.7357139 L12.4804777,23.8096931 L12.4953491,23.8136134 L12.4953491,23.8136134 L12.5071152,23.8096931 L12.6106902,23.7357139 L12.6232938,23.7196733 L12.6232938,23.7196733 L12.6266527,23.7031097 L12.609561,23.275831 C12.6075724,23.2657013 12.6010112,23.2592993 12.5934901,23.257841 L12.5934901,23.257841 Z M12.8583906,23.1452862 L12.8445485,23.1473072 L12.6598443,23.2396597 L12.6498822,23.2499052 L12.6498822,23.2499052 L12.6471943,23.2611114 L12.6650943,23.6906389 L12.6699349,23.7034178 L12.6699349,23.7034178 L12.678386,23.7104931 L12.8793402,23.8032389 C12.8914285,23.8068999 12.9022333,23.8029875 12.9078286,23.7952264 L12.9118235,23.7811639 L12.8776777,23.1665331 C12.8752882,23.1545897 12.8674102,23.1470016 12.8583906,23.1452862 L12.8583906,23.1452862 Z M12.1430473,23.1473072 C12.1332178,23.1423925 12.1221763,23.1452606 12.1156365,23.1525954 L12.1099173,23.1665331 L12.0757714,23.7811639 C12.0751323,23.7926639 12.0828099,23.8018602 12.0926481,23.8045676 L12.108256,23.8032389 L12.3092106,23.7104931 L12.3186497,23.7024347 L12.3186497,23.7024347 L12.3225043,23.6906389 L12.340401,23.2611114 L12.337245,23.2485176 L12.337245,23.2485176 L12.3277531,23.2396597 L12.1430473,23.1473072 Z" id="MingCute" fill-rule="nonzero"></path>
                <path d="M20,8 C21.1046,8 22,8.89543 22,10 L22,19 C22,20.1046 21.1046,21 20,21 L10,21 C8.89546,21 8.00003,20.1046 8.00003,19 L8.00003,10 C8.00003,8.89543 8.89546,8 10,8 L20,8 Z M20,10 L10,10 L10,19 L20,19 L20,10 Z M11.0561,3 C11.73886,3 12.0311924,3.5170048 12.1231134,3.83939471 L12.152,3.97178 L12.152,3.97178 C12.1923,4.25682 12.1263,4.97391 11.3913,5.20466 L10.9897541,5.33689247 C10.0563784,5.6583988 8.733462,6.211684 7.45577,7.07985 C5.98204,8.08121 4.62285,9.46343 3.93982,11.3417 C3.75108,11.8608 3.17732,12.1285 2.65828,11.9398 C2.13925,11.7511 1.8715,11.1773 2.06023,10.6583 C2.93199,8.26093 4.63842,6.57616 6.33174,5.42559 L6.66363375,5.20659625 L6.66363375,5.20659625 L6.99534,5 L6.00003,5 C5.44774,5 5.00003,4.55228 5.00003,4 C5.00003,3.48716857 5.38606566,3.06449347 5.8834079,3.0067278 L6.00003,3 L11.0561,3 Z" id="形状" fill="#09244B"></path>
            </g>
        </g>
    </g>
</svg>

<svg xmlns="http://www.w3.org/2000/svg" width="24" height="24"><g fill="none" fill-rule="nonzero"><path d="M24 0v24H0V0h24ZM12.593 23.258l-.011.002-.071.035-.02.004-.014-.004-.071-.035c-.01-.004-.019-.001-.024.005l-.004.01-.017.428.005.02.01.013.104.074.015.004.012-.004.104-.074.012-.016.004-.017-.017-.427c-.002-.01-.009-.017-.017-.018Zm.265-.113-.013.002-.185.093-.01.01-.003.011.018.43.005.012.008.007.201.093c.012.004.023 0 .029-.008l.004-.014-.034-.614c-.003-.012-.01-.02-.02-.022Zm-.715.002a.023.023 0 0 0-.027.006l-.006.014-.034.614c0 .012.007.02.017.024l.015-.002.201-.093.01-.008.004-.011.017-.43-.003-.012-.01-.01-.184-.092Z"/><path fill="#09244B" d="M20 8a2 2 0 0 1 2 2v9a2 2 0 0 1-2 2H10a2 2 0 0 1-2-2v-9a2 2 0 0 1 2-2h10Zm0 2H10v9h10v-9Zm-8.944-7c.683 0 .975.517 1.067.84l.029.132c.04.285-.026 1.002-.76 1.233l-.402.132c-.934.321-2.257.875-3.534 1.743C5.982 8.08 4.623 9.463 3.94 11.342a1 1 0 1 1-1.88-.684c.872-2.397 2.578-4.082 4.272-5.232l.332-.22L6.995 5H6a1 1 0 0 1-.117-1.993L6 3h5.056Z"/></g></svg>
